!!!COM: Haydn, Franz Joseph
!!!OTL: String Quartet in F Major
!!!OPS: Opus 50
!!!ONM: No. 5
!!!OMD: Finale: Vivace
!!!OMV: 4
!!!SCT: H III:48
!!!SCA: Thematisch-bibliographisches Werkevererzeichnis (A. van Hoboken)
!!!YOR: Trautwein Edition
!!!ENC: Frances Bennion
!!!CDT: 1732/3/31/-1809/5/31/
!!!CNT: Oesterreich
!!!YEC: Copyright (c) 1994, 2000 Center for Computer Assisted Research in the Humanities
!!!YEM: Rights to all derivative editions reserved.
!!!YEM: Refer to licensing agreement for further details.
!!!YEN: United States of America
**kern	**kern	**kern	**kern
*k[b-]	*k[b-]	*k[b-]	*k[b-]
*F:	*F:	*F:	*F:
*clefF4	*clefC3	*clefG	*clefG
*M6/8	*M6/8	*M6/8	*M6/8
3..r	2r	2r	2r
.	8r	8r	8r
24r	.	.	.
8r	8r	8r	16f
.	.	.	16a
=1	=1	=1	=1
4F	4A	4f	8cc
.	.	.	8cc
8G	8B-	8e	8cc
4F	4A	4f	8.cc
.	.	.	16b
8G	8B-	8e	8cc
=2	=2	=2	=2
4F	4A	4f	8.cc
.	.	.	16b
8G	8B-	8e	8cc
4F	4A	4f	8.cc
.	.	.	16b
8G	8B-	8e	8cc
=3	=3	=3	=3
8F	8A	8f	4cc
8F	8c	8a	.
8F	8c	8a	8ff
8F	8c	8a	4ff
8F	8c	8a	.
8F	8c	8a	8aa
=4	=4	=4	=4
8F	8c	8a	4aa
8F	8c	8a	.
8F	8c	8a	8ccc
8F	8c	8a	4ccc
4r	4r	4r	.
.	.	.	16G
.	.	.	16A
=5	=5	=5	=5
4CC	4E	4g	8B-
.	.	.	8B-
8DD-	8E	8f#	8B-
4CC	4E	4g	8.B-
.	.	.	16A
8DD-	8E	8f#	8B-
=6	=6	=6	=6
4CC	4E	4g	8.B-
.	.	.	16A
8DD-	8E	8f#	8B-
4CC	4E	4g	8.B-
.	.	.	16A
8DD-	8E	8f#	8B-
=7	=7	=7	=7
8CC	8E	8g	4B-
8CC	8E	8B- 8g	.
8CC	8E	8g 8B-	8e
8CC	8E	8g 8B-	4e
8CC	8E	8B- 8g	.
8CC	8E	8g 8B-	8g
=8	=8	=8	=8
8CC	8E	8g 8B-	4g
8CC	8E	8g 8B-	.
8CC	8E	8g 8B-	8b-
8CC	8E	8g 8B-	4b-
8CC	8E	8B- 8g	.
8CC	8E	8B- 8g	8B-
=9	=9	=9	=9
8FF	8F	8A 8f	8A
8FF	8A	8A	8f
8FF	8c	8A	8f
8AA	8f	8c	8.f
8AA	8c	8c	.
.	.	.	16e
8AA	8A	8c	8f
=10	=10	=10	=10
8BB-	8B-	8d	8d
8BB-	8d	8d	8b-
8BB-	8f	8d	8b-
8BB-	8d	8d	8.b-
8BB-	8B-	8d	.
.	.	.	16a
8BB-	8F	8d	8b-
=11	=11	=11	=11
8C	8E	8B-	8c
8C	8E	8B-	8c
8C	8E	8B-	8c
8C	8E	8B-	8c
8C	8F	8A	8d
8C	8G	8G	8e
=12	=12	=12	=12
4FF	4F	4A	4f
2r	2r	2r	4.r
.	.	.	16f
.	.	.	16a
=13	=13	=13	=13
8r	8r	8r	8cc
8F	8A	8f	8cc
8G	8B-	8e	8cc
8r	8r	8r	8.cc
8F	8A	8f	.
.	.	.	16b
8G	8B-	8e	8cc
=14	=14	=14	=14
8r	8r	8r	8.cc
8F	8A	8f	.
.	.	.	16b
8G	8B-	8e	8cc
8r	8r	8r	8.cc
8F	8A	8f	.
.	.	.	16b
8G	8B-	8e	8cc
=15	=15	=15	=15
8F	8A	8f	4cc
8F	8c	8a	.
8F	8c	8a	8ff
8F	8c	8a	4ff
8F	8c	8a	.
8F	8c	8a	8aa
=16	=16	=16	=16
8F	8c	8a	4aa
8F	8c	8a	.
8F	8c	8a	8ccc
8F	8c	8a	4ccc
4r	4r	4r	.
.	.	.	16G
.	.	.	16A
=17	=17	=17	=17
8r	8r	8r	8B-
8CC	8E	8g	8B-
8DD-	8E	8f#	8B-
8r	8r	8r	8.B-
8CC	8E	8g	.
.	.	.	16A
8DD-	8E	8f#	8B-
=18	=18	=18	=18
8r	8r	8r	8.B-
8CC	8E	8g	.
.	.	.	16A
8DD-	8E	8f#	8B-
8r	8r	8r	8.B-
8CC	8E	8g	.
.	.	.	16A
8DD-	8E	8f#	8B-
=19	=19	=19	=19
8CC	8E	8g	4B-
8CC	8E	8B- 8g	.
8CC	8E	8g 8B-	8e
8CC	8E	8g 8B-	4e
8CC	8E	8g 8B-	.
8CC	8E	8g 8B-	8g
=20	=20	=20	=20
8CC	8E	8g 8B-	4g
8CC	8E	8g 8B-	.
8CC	8E	8g 8B-	8b-
8CC	8E	8g 8B-	4b-
8CC	8E	8g 8B-	.
8CC	8E	8g 8B-	8B-
=21	=21	=21	=21
8FF	8F	8A 8f	8A
8FF	8A	8A	8f
8FF	8c	8A	8f
8AA	8f	8c	8.f
8AA	8c	8c	.
.	.	.	16e
8AA	8A	8c	8f
=22	=22	=22	=22
8BB-	8B-	8d	8d
8BB-	8d	8d	8b-
8BB-	8f	8d	8b-
8BB-	8b-	8d	8.b-
8BB-	8f	8d	.
.	.	.	16a
8BB-	8d	8d	8b-
=23	=23	=23	=23
8BB-	2f	8g	8g
8BB-	.	8g	8dd
8BB-	.	8g	8dd
8BB	.	8g	8.dd
8BB	8e	8g	.
.	.	.	16ee
8BB	8d	8g	8ff
=24	=24	=24	=24
8C	4c	4.f	4.a
8c	.	.	.
8C	2r	.	.
4C	.	8e	8g
.	.	4r	8r
8r	.	.	16cc
.	.	.	16ee
=25	=25	=25	=25
2.r	2.r	16c	8gg
.	.	16d	.
.	.	16e	8gg
.	.	16f	.
.	.	16g	8gg
.	.	16a	.
.	.	16b	8.gg
.	.	16cc	.
.	.	16dd	.
.	.	16ee	16ff#
.	.	16dd	8gg
.	.	16cc	.
=26	=26	=26	=26
16GG	2.r	8ff	[2.gg
16AA	.	.	.
16BB	.	8ff	.
16C	.	.	.
16D	.	8ff	.
16E	.	.	.
16F	.	8.ff	.
16G	.	.	.
16A	.	.	.
16B	.	16ee	.
16A	.	8ff	.
16G	.	.	.
=27	=27	=27	=27
4c	16C	2ee	8gg]
.	16D	.	.
.	16E	.	8gg
.	16F	.	.
2r	16G	.	8gg
.	16A	.	.
.	16B	.	8.gg
.	16c	.	.
.	16d	8b	.
.	16e	.	16ff#
.	16d	8cc	8gg
.	16c	.	.
=28	=28	=28	=28
16GG	8f	16b	[2.gg
16AA	.	16cc	.
16BB	8f	16dd	.
16C	.	16cc	.
16D	8f	16b	.
16E	.	16a	.
16F	8.f	16g	.
16G	.	16f	.
16A	.	16e	.
16B	16e	16d	.
16A	8f	16c	.
16G	.	16B	.
=29	=29	=29	=29
8c	8e-	8c	16gg]
.	.	.	16bb
8c	8e-	8g	16ccc
.	.	.	16bb
8c	8e-	8g	16ccc
.	.	.	16bb
8c	8e-	8g	16ccc
.	.	.	16ddd
8c	8e-	8g	16eee-
.	.	.	16ddd
8c	8e-	8g	16eee-
.	.	.	16ddd
=30	=30	=30	=30
[2.c	2.e-	2.a-	8eee-
.	.	.	8ccc
.	.	.	8aa-
.	.	.	8ee-
.	.	.	8cc
.	.	.	8a-
=31	=31	=31	=31
8c]	2.c	2.e-	4.g
8c	.	.	.
8c	.	.	.
8c	.	.	4.f#
8c	.	.	.
8c	.	.	.
=32	=32	=32	=32
4B	4d	4d	16g
.	.	.	16a
.	.	.	16b
.	.	.	16a
8r	8r	8r	16g
.	.	.	16a
4B	4d	4g	16b
.	.	.	16cc
.	.	.	16dd
.	.	.	16cc
8r	8r	8r	16b
.	.	.	16cc
=33	=33	=33	=33
4B	4d	4g	16dd
.	.	.	16ee
.	.	.	16ff
.	.	.	16ee
8r	8r	8r	16dd
.	.	.	16ee
4B	4d	4g	16ff
.	.	.	16ee
.	.	.	16dd
.	.	.	16ee
8r	8r	8r	16ff
.	.	.	16gg
=34	=34	=34	=34
4B	4d	4f	2.aa
2r	2r	2r	.
=35	=35	=35	=35
16F	2.r	4.b	4.aa
16G	.	.	.
16A	.	.	.
16B	.	.	.
16c	.	.	.
16d	.	.	.
8e	.	8cc	8gg
8e	.	8cc	8gg
8e	.	8cc	8gg
=36	=36	=36	=36
16D	2.r	4b	4.ff
16E	.	.	.
16F	.	.	.
16G	.	.	.
16A	.	16cc	.
16B	.	16dd	.
8c	.	8g	8ee
8c	.	8g	8ee
8c	.	8g	8ee
=37	=37	=37	=37
2.r	2.r	8f	16a
.	.	.	16b
.	.	8e	16cc
.	.	.	16dd
.	.	8d	16ee
.	.	.	16ff
.	.	8g	16b
.	.	.	16cc
.	.	8f	16dd
.	.	.	16ee
.	.	8e	16ff
.	.	.	16gg
=38	=38	=38	=38
2.r	2.r	8a	16cc
.	.	.	16dd
.	.	8g	16ee
.	.	.	16ff
.	.	8f	16gg
.	.	.	16aa
.	.	8b	16dd
.	.	.	16ee
.	.	8a	16ff
.	.	.	16gg
.	.	8g	16aa
.	.	.	16bb
=39	=39	=39	=39
2.r	2.r	4cc	4ccc
.	.	8ee	8eee
.	.	4gg	4ggg
.	.	8ee	8eee
=40	=40	=40	=40
4r	4r	8cc	8ccc
.	.	8g	8gg
8E	8e	8e	8ee
8C	8c	8cc	8cc
8AA	8A	8a	8a
8FF#	8F#	8f#	8f#
=41	=41	=41	=41
[2.GG	8G	4.g	8g
.	8c	.	8cc
.	8e	.	8ee
.	4g	4.e	4gg
.	8g#	.	8gg#
=42	=42	=42	=42
2.GG_	8a	8f	8aa
.	8f#	8d#	8ff#
.	8g	8e	8gg
.	8e	8c#	8ee
.	8f	8d	8ff
.	8d#	8B	8dd#
=43	=43	=43	=43
4.GG]	8e	8c	8ee
.	8B	8d	8b
.	8c	8e	8cc
4.FF	8A	4.f	8a
.	8d	.	8dd
.	8f	.	8ff
=44	=44	=44	=44
4GG	2.G	8e	4.cc
.	.	8g	.
4.r	.	8cc	.
.	.	8b	4.dd
.	.	8g	.
24GG	.	8f	.
24AA	.	.	.
24BB	.	.	.
=45	=45	=45	=45
8C	4C	4e	8cc
8C	.	.	4r
8C	2r	8r	.
8.C	.	4.a	4.ff
16BB	.	.	.
8C	.	.	.
=46	=46	=46	=46
8C	2.r	8g	8ee
8C	.	4r	4r
8C	.	.	.
8.C	.	4.f	4.dd
16BB	.	.	.
8C	.	.	.
=47	=47	=47	=47
8C	4.r	8e	8cc
8C	.	4r	4r
8C	.	.	.
8.C	4.f	4.a	16a
.	.	.	16b
.	.	.	16cc
16BB	.	.	16dd
8C	.	.	16ee
.	.	.	16ff
=48	=48	=48	=48
8C	8e	8g	16gg
.	.	.	16aa
8C	4r	4r	16bb
.	.	.	16ccc
8C	.	.	16ddd
.	.	.	16eee
8.C	4.d	4.b	8fff
.	.	.	16fff
16BB	.	.	16eee
8C	.	.	8fff
=49	=49	=49	=49
8CC	8c	8cc	8eee
16C	4r	4r	4r
16BB	.	.	.
8C	.	.	.
8C	8dd	8ff	8bb
8C	16dd	16ff	16bb
.	16cc	16ee	16aa
8C	8dd	8ff	8bb
=50	=50	=50	=50
8CC	8cc	8ee	8ccc
16C	4r	4r	4r
16BB	.	.	.
8C	.	.	.
8C	8d	8b	8ff
8C	16d	16b	16ff
.	16c	16cc	16ee
8C	8d	8b	8ff
=51	=51	=51	=51
8CC	8c	8cc	8ee
16C	4r	4r	4r
16BB	.	.	.
8C	.	.	.
8C	8d	8f	8b
8C	16d	16f	16b
.	16c	16e	16a
8C	8d	8f	8b
=52	=52	=52	=52
8CC	8c	8e	8cc
3..r	4r	4r	8r
.	.	.	16e
.	.	.	16g
.	8e	8g	8cc
.	8e	8g	8cc
.	8e	8g	8cc
24r	.	.	.
=53	=53	=53	=53
2.r	8e	8g	8cc
.	4r	4r	8r
.	.	.	16e
.	.	.	16g
.	8e	8g	8b-
.	8e	8g	8b-
.	8e	8g	8b-
=54	=54	=54	=54
2.r	8e	8g	8b-
.	2r	2r	2r
.	8r	8r	16e
.	.	.	16g#
=55	=55	=55	=55
8C#	8A	8e	8a
8C#	8A	8e	8a
8C#	8A	8e	8a
8C#	8A	8e	8a
4r	4r	4r	8r
.	.	.	16cc#
.	.	.	16ee
=56	=56	=56	=56
2.r	2.r	2.r	8gg
.	.	.	8r
.	.	.	16aa
.	.	.	16ccc#
.	.	.	8eee
.	.	.	8r
.	.	.	16d
.	.	.	16f
=57	=57	=57	=57
4D	4F	[2.A	16a
.	.	.	16dd
.	.	.	16a
.	.	.	16g
8E	8G	.	16f
.	.	.	16e
4F	4A	.	16d
.	.	.	16f
.	.	.	16e
.	.	.	16d
8E	8G	.	16c#
.	.	.	16A
=58	=58	=58	=58
4D	4F	2.A_	16d
.	.	.	16f
.	.	.	16e
.	.	.	16d
8E	8G	.	16c#
.	.	.	16A
4D	4F	.	16d
.	.	.	16f
.	.	.	16e
.	.	.	16d
8E	8G	.	16c#
.	.	.	16A
=59	=59	=59	=59
4.D	4.F	4.A]	16d
.	.	.	16f
.	.	.	16a
.	.	.	16cc#
.	.	.	16dd
.	.	.	16ff
4FF#	4D	4cc	16aa
.	.	.	16gg
.	.	.	16ff#
.	.	.	16ee-
8F#	8d	8a	16dd
.	.	.	16cc
=60	=60	=60	=60
4G	4B-	8g	16b-
.	.	.	16dd
.	.	8d	16b-
.	.	.	16g
8A	8c	8d	16f#
.	.	.	16d
4B-	4d	8.d	16g
.	.	.	16b-
.	.	.	16a
.	.	16c#	16g
8A	8c	8d	16f#
.	.	.	16d
=61	=61	=61	=61
4G	4B-	8.d	16g
.	.	.	16b-
.	.	.	16a
.	.	16c#	16g
8A	8c	8d	16f#
.	.	.	16d
4G	4B-	8.d	16g
.	.	.	16b-
.	.	.	16a
.	.	16c#	16g
8A	8c	8d	16f#
.	.	.	16d
=62	=62	=62	=62
4.G	4.B-	4.d	16g
.	.	.	16b-
.	.	.	16dd
.	.	.	16ff#
.	.	.	16gg
.	.	.	16bb-
4.BB	[4.G	4f	16ddd
.	.	.	16ccc
.	.	.	16bb
.	.	.	16aa
.	.	8d	16gg
.	.	.	16ff
=63	=63	=63	=63
4C	8G]	8c	16ee
.	.	.	16gg
.	8e	8g	16ee
.	.	.	16cc
8D	8f	8g	16b
.	.	.	16g
4E	4g	8.g	16cc
.	.	.	16ee
.	.	.	16dd
.	.	16f#	16cc
8D	8f	8g	16b
.	.	.	16g
=64	=64	=64	=64
8r	8r	8.g	16cc
.	.	.	16ee
8C	8e	.	16dd
.	.	16f#	16cc
8D	8f	8g	16b
.	.	.	16g
8r	8r	8.g	16cc
.	.	.	16ee
8C	8E	.	16dd
.	.	16f#	16cc
8D	8F	8g	16b
.	.	.	16g
=65	=65	=65	=65
4.C	2E	2.g	16cc
.	.	.	16dd
.	.	.	16ee
.	.	.	16ff
.	.	.	16gg
.	.	.	16aa
4EE	.	.	16bb-
.	.	.	16gg
.	8g	.	16ee
.	.	.	16cc
8E	8b-	.	16b-
.	.	.	16g
=66	=66	=66	=66
16F	16a	8f	8a
16G	16b-	.	.
16A	16cc	8ff	8aa
16G	16b-	.	.
16F	16a	8ff	8aa
16E	16g	.	.
16D	16f	4.ff	4.aa
16E	16g	.	.
16F	16a	.	.
16E	16g	.	.
16D	16f	.	.
16C	16e	.	.
=67	=67	=67	=67
16BB-	4.d	8dd	8gg
16C	.	.	.
16D	.	8b-	8ddd
16C	.	.	.
16BB-	.	8f	8ddd
16AA	.	.	.
16GG	16b-	[4.g	4.ddd
16AA	16cc	.	.
16BB-	16dd	.	.
16AA	16cc	.	.
16GG	16b-	.	.
16FF	16a	.	.
=68	=68	=68	=68
16EE	8g	16g]	8ccc#
16FF	.	16a	.
16GG	8e	16b-	8ccc#
16FF	.	16a	.
16EE	8f	16g	8ccc#
16DD	.	16f	.
16CC#	8g	4.e	8eee
16EE	.	.	.
16AA	8a	.	8aa
16C#	.	.	.
16E	8a	.	8gg
16C#	.	.	.
=69	=69	=69	=69
8D	8f	8A	16ff
.	.	.	16gg
8d	8f	2r	16aa
.	.	.	16gg
8d	8f	.	16ff
.	.	.	16ee
8.d	8.f	.	16dd
.	.	.	16ee
.	.	.	16ff
16c	16e	.	16ee
8d	8f	8r	16dd
.	.	.	16cc
=70	=70	=70	=70
8D	8F	2.r	16b
.	.	.	16cc
8d	8f	.	16dd
.	.	.	16ff
8d	8f	.	16dd
.	.	.	16cc
8.d	8.f	.	16b
.	.	.	16cc
.	.	.	16dd
16c	16e	.	16cc
8d	8f	.	16b
.	.	.	16a
=71	=71	=71	=71
8e	8e	4ee	16g#
.	.	.	16b
8E	8r	.	16ee
.	.	.	16gg#
8E	8b	8dd	16bb
.	.	.	16gg#
8E	8cc	4cc	16aa
.	.	.	16ee
8E	8r	.	16dd
.	.	.	16cc
8E	8cc	8dd#	16b
.	.	.	16a
=72	=72	=72	=72
8E	8b	8ee	16g#
.	.	.	16b
8E	8r	8e	16ee
.	.	.	16gg#
8E	8B	8d	16bb
.	.	.	16gg#
8E	8c	4c	16aa
.	.	.	16ee
8E	8r	.	16dd
.	.	.	16cc
8E	8c	8d#	16b
.	.	.	16a
=73	=73	=73	=73
[2.E	4B	4e	4e
.	8e	8c	8ee
.	8f	8d	8ff
.	8d#	8B	8dd#
.	8e	8c	8ee
=74	=74	=74	=74
2.E_	8c#	8A#	8cc#
.	8d	8B	8dd
.	8B	8G#	8b
.	8c	8A	8cc
.	8G#	8B	8g#
.	8A	8c	8a
=75	=75	=75	=75
2.E]	2.G	2.c#	4b-
.	.	.	8cc#
.	.	.	8ee
.	.	.	8gg
.	.	.	8bb-
=76	=76	=76	=76
4F	4A	4d	8gg#
.	.	.	8aa
2r	2r	2r	8ee
.	.	.	8gg
.	.	.	8ff
.	.	.	8dd
=77	=77	=77	=77
4F	4G	4d	8cc
.	.	.	8b
2r	2r	2r	8aa
.	.	.	8ff#
.	.	.	8gg
.	.	.	8b
=78	=78	=78	=78
4E	4G	4c	8dd
.	.	.	8cc
2r	2r	2r	8ee
.	.	.	8dd
.	.	.	8ff
.	.	.	8ee
=79	=79	=79	=79
2.r	2.r	2.r	8gg
.	.	.	8ff
.	.	.	8aa
.	.	.	8gg
.	.	.	8bb-
.	.	.	8aa
=80	=80	=80	=80
3..r	2r	2r	8ccc
.	.	.	8bb-
.	.	.	8gg
.	.	.	8ee
.	8r	8r	8cc
24r	.	.	.
8B-	8B-	8b-	8b-
=81	=81	=81	=81
8G	8G	8g	8g
8E	8E	8e	8e
8C	8C	8c	8c
8BB-	8c	8G	8B-
8GG	8B-	8c	8e
8EE	8G	8e	8g
=82	=82	=82	=82
4CC	4E	4g	4b-
2r	2r	2r	4.r
.	.	.	16f
.	.	.	16a
=83	=83	=83	=83
4F	4A	4f	8cc
.	.	.	8cc
8G	8B-	8e	8cc
4F	4A	4f	8.cc
.	.	.	16b
8G	8B-	8e	8cc
=84	=84	=84	=84
4F	4A	4f	8.cc
.	.	.	16b
8G	8B-	8e	8cc
4F	4A	4f	8.cc
.	.	.	16b
8G	8B-	8e	8cc
=85	=85	=85	=85
8F	8A	8f	4cc
8F	8c	8a	.
8F	8c	8a	8ff
8F	8c	8a	4ff
8F	8c	8a	.
8F	8c	8a	8aa
=86	=86	=86	=86
8F	8c	8a	4aa
8F	8c	8a	.
8F	8c	8a	8ccc
8F	8c	8a	4ccc
4r	4r	4r	.
.	.	.	16G
.	.	.	16A
=87	=87	=87	=87
4CC	4E	4g	8B-
.	.	.	8B-
8DD-	8E	8f#	8B-
4CC	4E	4g	8.B-
.	.	.	16A
8DD-	8E	8f#	8B-
=88	=88	=88	=88
4CC	4E	4g	8.B-
.	.	.	16A
8DD-	8E	8f#	8B-
4CC	4E	4g	8.B-
.	.	.	16A
8DD-	8E	8f#	8B-
=89	=89	=89	=89
8CC	8E	8g	4B-
8CC	8E	8B- 8g	.
8CC	8E	8g 8B-	8e
8CC	8E	8g 8B-	4e
8CC	8E	8g 8B-	.
8CC	8E	8B- 8g	8g
=90	=90	=90	=90
8CC	8E	8B- 8g	4g
8CC	8E	8g 8B-	.
8CC	8E	8g 8B-	8b-
8CC	8E	8B- 8g	4b-
8CC	8E	8B- 8g	.
8CC	8E	8B- 8g	8B-
=91	=91	=91	=91
8FF	8F	8f 8A	8A
8FF	8A	8A	8f
8FF	8c	8A	8f
8AA	8f	8c	8.f
8AA	8c	8c	.
.	.	.	16e
8AA	8A	8c	8f
=92	=92	=92	=92
16BB-	8B-	16d	8d
16C	.	16e	.
16BB-	8r	16d	8b-
16AA	.	16c	.
16GG	8d	16B-	8b-
16BB-	.	16d	.
16C	8c	16e	8e
16D	.	16f	.
16C	8r	16e	8cc
16BB-	.	16d	.
16AA	8e	16c	8cc
16C	.	16e	.
=93	=93	=93	=93
16D	8d	16f	8f
16E	.	16g	.
16D	8r	16f	8dd
16C	.	16e	.
16BB-	8f	16d	8dd
16D	.	16f	.
16E	8e	16g	8g
16F	.	16a	.
16E	8r	16g	8cc
16D	.	16f	.
16C	8g	16e	8b-
16E	.	16g	.
=94	=94	=94	=94
8F	8f	8a	16a
.	.	.	16aa
8F	8a	8a	16gg
.	.	.	16ff
8F	8a	8a	16ee
.	.	.	16dd
8D	8d	8.f	16cc
.	.	.	16b
8D	8d	.	16ff
.	.	16e	16dd
8D	8d	8f	16cc
.	.	.	16b
=95	=95	=95	=95
[2.C	2e	4e	8cc
.	.	.	8cc
.	.	2r	8cc
.	.	.	8.cc
.	8e	.	.
.	.	.	16b
.	8e	.	8cc
=96	=96	=96	=96
2.C_	16f#	8dd	4.cc
.	16g	.	.
.	16a	8dd	.
.	16d	.	.
.	16e	8dd	.
.	16f#	.	.
.	16g	8.dd	8b-
.	16a	.	.
.	16b-	.	8b-
.	16a	16cc#	.
.	16g	8dd	8b-
.	16f	.	.
=97	=97	=97	=97
2.C_	16e	8cc	8.b-
.	16f	.	.
.	16g	8cc	.
.	16c	.	16a
.	16d	8cc	8b-
.	16e	.	.
.	16f	8.cc	8a
.	16g	.	.
.	16a	.	8a
.	16g	16b	.
.	16f	8cc	8a
.	16e	.	.
=98	=98	=98	=98
2.C]	16d	8b-	8.a
.	16e	.	.
.	16f	8b-	.
.	16B-	.	16g
.	16c	8b-	8a
.	16d	.	.
.	16e	8.b-	8g
.	16f	.	.
.	16g	.	8g
.	16c	16a	.
.	16d	8b-	8g
.	16e	.	.
=99	=99	=99	=99
4FF	4f	16a	8a
.	.	16f	.
.	.	16a	8ccc
.	.	16b-	.
2r	2r	16cc	8ccc
.	.	16dd	.
.	.	16ee	8.ccc
.	.	16ff	.
.	.	16gg	.
.	.	16aa	16bb
.	.	16gg	8ccc
.	.	16ff	.
=100	=100	=100	=100
16C	2.r	8bb-	[2.ccc
16D	.	.	.
16E	.	8bb-	.
16F	.	.	.
16G	.	8bb-	.
16A	.	.	.
16B-	.	8.bb-	.
16c	.	.	.
16d	.	.	.
16e	.	16aa	.
16d	.	8bb-	.
16c	.	.	.
=101	=101	=101	=101
4f	16F	2aa	8ccc]
.	16G	.	.
.	16A	.	8ccc
.	16B-	.	.
2r	16c	.	8ccc
.	16d	.	.
.	16e	.	8.ccc
.	16f	.	.
.	16g	8ee	.
.	16a	.	16bb
.	16g	8ff	8ccc
.	16f	.	.
=102	=102	=102	=102
16CC	8b-	16ee	[2.ccc
16DD	.	16ff	.
16EE	8b-	16gg	.
16FF	.	16ff	.
16GG	8b-	16ee	.
16AA	.	16dd	.
16BB-	8.b-	16cc	.
16C	.	16b-	.
16D	.	16a	.
16E	16a	16g	.
16D	8b-	16f	.
16C	.	16e	.
=103	=103	=103	=103
8F	8a	8f	16ccc]
.	.	.	16ddd
8F	8c	8a	16eee-
.	.	.	16ddd
8F	8c	8a	16eee-
.	.	.	16ddd
8F	8c	8a	16eee-
.	.	.	16ddd
8F	8c	8a	16eee-
.	.	.	16ddd
8F	8c	8a	16eee-
.	.	.	16ddd
=104	=104	=104	=104
2.F	[2c	[2a	8eee-
.	.	.	8ccc
.	.	.	8aa
.	.	.	8ff
.	8c]	8a]	8ee-
.	8A	8cc	8cc
=105	=105	=105	=105
2B-	2B-	2f	4.cc#
.	.	.	8dd
4r	4r	4r	8ddd
.	.	.	8ddd
=106	=106	=106	=106
4B-	4d	4g	8r
.	.	.	16aa
.	.	.	16bb-
8r	8r	8r	16aa
.	.	.	16bb-
4B-	4d	4g	8r
.	.	.	16ff#
.	.	.	16gg
8r	8r	8r	16ff#
.	.	.	16gg
=107	=107	=107	=107
4B-	4d	4g	8r
.	.	.	16cc#
.	.	.	16dd
8r	8r	8r	16cc#
.	.	.	16dd
4B-	4d	4g	8r
.	.	.	8bb-
8r	8r	8r	8gg
=108	=108	=108	=108
8c	8f	8a	4.ff
8c	8f	8a	.
8c	8f	8a	.
8C	8e	8b-	4.gg
8C	8e	8b-	.
8C	8e	8b-	.
=109	=109	=109	=109
[2.D	[2.f	[2.b	16ff
.	.	.	16gg
.	.	.	16aa
.	.	.	16gg
.	.	.	16ff
.	.	.	16ee
.	.	.	16dd
.	.	.	16ee
.	.	.	16ff
.	.	.	16ee
.	.	.	16dd
.	.	.	16cc
=110	=110	=110	=110
2.D]	2.f]	2b_	16b
.	.	.	16cc
.	.	.	16dd
.	.	.	16cc
.	.	.	16b
.	.	.	16a
.	.	.	16g
.	.	.	16f
.	.	8b]	16e
.	.	.	16d
.	.	8dd	16c
.	.	.	16B
=111	=111	=111	=111
4E	4g	4cc	16c
.	.	.	16d
.	.	.	16e
.	.	.	16d
2r	2r	2r	16f
.	.	.	16e
.	.	.	16g
.	.	.	16f
.	.	.	16a
.	.	.	16g
.	.	.	16b-
.	.	.	16a
=112	=112	=112	=112
4E	4b-	4g	8cc
.	.	.	8b-
2r	2r	2r	8g
.	.	.	8cc
.	.	.	8b-
.	.	.	8g
=113	=113	=113	=113
4E	4b-	4g	4cc
2r	2r	2r	8b-
.	.	.	8g
.	.	.	8r
.	.	.	16f
.	.	.	16a
=114	=114	=114	=114
8r	8r	16f	8cc
.	.	16a	.
8F	8A	16g	8cc
.	.	16f	.
8G	8B-	8e	8cc
8r	8r	16f	8.cc
.	.	16a	.
8F	8A	16g	.
.	.	16f	16b
8G	8B-	8e	8cc
=115	=115	=115	=115
8r	8r	16f	8.cc
.	.	16a	.
8F	8A	16g	.
.	.	16f	16b
8G	8B-	8e	8cc
8r	8r	16f	8.cc
.	.	16a	.
8F	8A	16g	.
.	.	16f	16b
8G	8B-	8e	8cc
=116	=116	=116	=116
8F	8A	8f	4cc
8F	8c	8a	.
8F	8c	8a	8ff
8F	8c	8a	4ff
8F	8c	8a	.
8F	8c	8a	8aa
=117	=117	=117	=117
8F	8c	8a	4aa
8F	8c	8a	.
8F	8c	8a	8ccc
8F	8c	4a	4ccc
4r	4r	.	.
.	.	8r	16G
.	.	.	16A
=118	=118	=118	=118
8r	8r	16g	8B-
.	.	16b-	.
8CC	8E	16a	8B-
.	.	16g	.
8DD-	8E	8f#	8B-
8r	8r	16g	8.B-
.	.	16b-	.
8CC	8E	16a	.
.	.	16g	16A
8DD-	8E	8f#	8B-
=119	=119	=119	=119
8r	8r	16g	8.B-
.	.	16b-	.
8CC	8E	16a	.
.	.	16g	16A
8DD-	8E	8f#	8B-
8r	8r	16g	8.B-
.	.	16b-	.
8CC	8E	16a	.
.	.	16g	16A
8DD-	8E	8f#	8B-
=120	=120	=120	=120
8CC	8E	8g	4B-
8CC	8E	8B- 8g	.
8CC	8E	8g 8B-	8e
8CC	8E	8g 8B-	4e
8CC	8E	8g 8B-	.
8CC	8E	8g 8B-	8g
=121	=121	=121	=121
8CC	8E	8g 8B-	4g
8CC	8E	8g 8B-	.
8CC	8E	8g 8B-	8b-
8CC	8E	8g 8B-	4b-
8CC	8E	8g 8B-	.
8CC	8E	8g 8B-	8B-
=122	=122	=122	=122
8FF	8F	8f	8A
8FF	8A	8A	8f
8FF	8c	8A	8f
8AA	8f	8c	8.f
8AA	8c	8c	.
.	.	.	16e
8AA	8A	8c	8f
=123	=123	=123	=123
8BB-	8B-	8d	8d
8BB-	8d	8d	8b-
8BB-	8f	8d	8b-
8BB-	8d	8d	8.b-
8BB-	8B-	8d	.
.	.	.	16a
8BB-	8F	8d	8b-
=124	=124	=124	=124
8C	8E	8B-	8c
8C	8E	8B-	8c
8C	8E	8B-	8c
8C	8E	8B-	8c
8C	8F	8A	8d
8C	8G	8G	8e
=125	=125	=125	=125
8FF	4F	4A	8f
8FF	.	.	4r
8FF	2r	8r	.
8.FF	.	4.d	4.b-
16EE	.	.	.
8FF	.	.	.
=126	=126	=126	=126
8FF	2.r	8c	8a
8FF	.	4r	4r
8FF	.	.	.
8.FF	.	4.B-	4.g
16EE	.	.	.
8FF	.	.	.
=127	=127	=127	=127
8FF	4.r	8A	8f
8FF	.	4r	4r
8FF	.	.	.
8.FF	4.B-	4.d	16d
.	.	.	16e
.	.	.	16f
16EE	.	.	16g
8FF	.	.	16a
.	.	.	16b-
=128	=128	=128	=128
8FF	8A	8c	16cc
.	.	.	16dd
8FF	4r	4r	16ee
.	.	.	16ff
8FF	.	.	16gg
.	.	.	16aa
8.FF	4.G	4.e	8bb-
.	.	.	16bb-
16EE	.	.	16aa
8FF	.	.	8bb-
=129	=129	=129	=129
8FF	8F	8f	8aa
16FF	4r	4r	4r
16EE	.	.	.
8FF	.	.	.
8FF	8g	8b-	8ee
8FF	16g	16b-	16ee
.	16f	16a	16dd
8FF	8g	8b-	8ee
=130	=130	=130	=130
8FF	8f	8a	8ff
16FF	4r	4r	4r
16EE	.	.	.
8FF	.	.	.
8FF	8G	8e	8b-
8FF	16G	16e	16b-
.	16F	16f	16a
8FF	8G	8e	8b-
=131	=131	=131	=131
8FF	8F	8f	8a
16FF	4r	4r	4r
16EE	.	.	.
8FF	.	.	.
8FF	8G	8B-	8e
8FF	16G	16B-	16e
.	16F	16A	16d
8FF	8G	8B-	8e
=132	=132	=132	=132
4FF	4F	4A	4f
8r	8r	8r	8r
4FF	4A 4C	4f 4A	4f 4A
8r	8r	8r	8r
=133	=133	=133	=133
4FF	4C 4A	4f 4A	4f 4A
2r	2r	2r	2r
==	==	==	==
*-	*-	*-	*-
!!!RWG1: This file contains only pitch and duration data.
!!!RWG2: Transposing instruments are not transposed.
!!!RWG3: Spines may have incompatible meters.
!!!RWG4: Durations of rests and tied notes may be interpreted.
!!!RWG: Key is interpreted using the Humdrum key tool.
!!!GTL: 6 Quartetti ("Prussian")
!!!OPT: Ein Traum
!!!AFT: stage1
!!!END: 1997/04/15
!!!KEY: 3270917380
!!!EMD: Converted from MuseData to Humdrum Dec 16, 2000, by Andreas Kornstaedt using muse2kern.
!!!EMD: Manual editing by Craig Sapp, Nov 2001
